actions/24/mail-signed.svg

<?xml version="1.0" encoding="UTF-8" standalone="no"?>
<svg
   width="24"
   height="24"
   version="1.1"
   id="svg9"
   sodipodi:docname="mail-signed-fully.svg"
   inkscape:version="1.1.2 (0a00cf5339, 2022-02-04)"
   xmlns:inkscape="http://www.inkscape.org/namespaces/inkscape"
   xmlns:sodipodi="http://sodipodi.sourceforge.net/DTD/sodipodi-0.dtd"
   xmlns="http://www.w3.org/2000/svg"
   xmlns:svg="http://www.w3.org/2000/svg">
  <sodipodi:namedview
     id="namedview11"
     pagecolor="#000000"
     bordercolor="#666666"
     borderopacity="1.0"
     inkscape:pageshadow="2"
     inkscape:pageopacity="0"
     inkscape:pagecheckerboard="0"
     showgrid="false"
     inkscape:zoom="34.625"
     inkscape:cx="11.98556"
     inkscape:cy="12"
     inkscape:window-width="1502"
     inkscape:window-height="1039"
     inkscape:window-x="208"
     inkscape:window-y="19"
     inkscape:window-maximized="1"
     inkscape:current-layer="g7" />
  <defs
     id="defs3">
    <style
       id="current-color-scheme"
       type="text/css">
   .ColorScheme-Text { color:#eeeeec; } .ColorScheme-Highlight { color:#367bf0; } .ColorScheme-NeutralText { color:#ffcc44; } .ColorScheme-PositiveText { color:#3db47e; } .ColorScheme-NegativeText { color:#dd4747; }
  </style>
  </defs>
  <g
     transform="translate(4,4)"
     id="g7">
    <path
       style="fill:currentColor"
       class="ColorScheme-Text"
       d="m 14,8 -4,4 v 1.329251 L 10.671166,14 v 0 H 12 l 4,-4 z M 2,2 C 0,2 0,4 0,4 v 8 c 0,0 0,2 2,2 h 7 v -2 c 0,-0.265 0.1055,-0.52 0.293,-0.707 l 4,-4 C 13.477,7.1093 13.74,7.0043 14,7 14.271,6.9958 14.516,7.1015 14.707,7.293 L 15.607168,8.1930984 16,7.9527213 v 0 V 4 C 16,4 16,2 14,2 Z M 2,4.5162596 2.6082948,4.3041474 8,7 13.515272,4.2423641 v 0 L 14,4.4990287 V 6 L 8,9 2,6 Z"
       id="path5"
       sodipodi:nodetypes="ccccccccsccscsccccccccssccccccccccc" />
  </g>
</svg>

<svg xmlns="http://www.w3.org/2000/svg" width="24" height="24" version="1.1">
 <defs>
  <style id="current-color-scheme" type="text/css">
   .ColorScheme-Text { color:#eeeeec; } .ColorScheme-Highlight { color:#367bf0; } .ColorScheme-NeutralText { color:#ffcc44; } .ColorScheme-PositiveText { color:#3db47e; } .ColorScheme-NegativeText { color:#dd4747; }
  </style>
 </defs>
 <g transform="translate(4,4)">
  <path style="fill:currentColor" class="ColorScheme-Text" d="M 14,8 10,12 V 14 H 12 L 16,10 Z M 2,2 C 0,2 0,4 0,4 V 12 C 0,12 0,14 2,14 H 9 V 12 C 9,11.735 9.1055,11.48 9.293,11.293 L 13.293,7.293 C 13.477,7.1093 13.74,7.0043 14,7 14.271,6.9958 14.516,7.1015 14.707,7.293 L 16,8.5859 V 4 C 16,4 16,2 14,2 Z M 2,4 8,7 14,4 V 6 L 8,9 2,6 Z"/>
 </g>
</svg>
